src/catppuccin-mocha-peach-cursors/bottom_side.svg

<?xml version="1.0" encoding="UTF-8" standalone="no"?>
<svg
   id="svg5327"
   width="32"
   height="32"
   version="1.1"
   sodipodi:docname="bottom_side.svg"
   inkscape:version="1.1.2 (0a00cf5339, 2022-02-04)"
   xmlns:inkscape="http://www.inkscape.org/namespaces/inkscape"
   xmlns:sodipodi="http://sodipodi.sourceforge.net/DTD/sodipodi-0.dtd"
   xmlns="http://www.w3.org/2000/svg"
   xmlns:svg="http://www.w3.org/2000/svg">
  <sodipodi:namedview
     id="namedview601"
     pagecolor="#ffffff"
     bordercolor="#666666"
     borderopacity="1.0"
     inkscape:pageshadow="2"
     inkscape:pageopacity="0.0"
     inkscape:pagecheckerboard="0"
     showgrid="false"
     inkscape:zoom="25.96875"
     inkscape:cx="16.019254"
     inkscape:cy="16.019254"
     inkscape:window-width="1896"
     inkscape:window-height="1020"
     inkscape:window-x="9"
     inkscape:window-y="45"
     inkscape:window-maximized="1"
     inkscape:current-layer="svg5327" />
  <defs
     id="defs5329">
    <filter
       id="filter877"
       style="color-interpolation-filters:sRGB"
       width="1.101"
       height="1.148"
       x="-.05"
       y="-.07">
      <feGaussianBlur
         id="feGaussianBlur879"
         stdDeviation=".463" />
    </filter>
    <filter
       id="filter822"
       style="color-interpolation-filters:sRGB"
       width="1.1210909"
       height="1.1776"
       x="-0.060545455"
       y="-0.088800001">
      <feGaussianBlur
         id="feGaussianBlur824"
         stdDeviation=".555" />
    </filter>
  </defs>
  <path
     id="path835"
     style="color:#000000;font-style:normal;font-variant:normal;font-weight:normal;font-stretch:normal;font-size:medium;line-height:normal;font-family:sans-serif;font-variant-ligatures:normal;font-variant-position:normal;font-variant-caps:normal;font-variant-numeric:normal;font-variant-alternates:normal;font-feature-settings:normal;text-indent:0;text-align:start;text-decoration:none;text-decoration-line:none;text-decoration-style:solid;text-decoration-color:#000000;letter-spacing:normal;word-spacing:normal;text-transform:none;writing-mode:lr-tb;direction:ltr;text-orientation:mixed;dominant-baseline:auto;baseline-shift:baseline;text-anchor:start;white-space:normal;shape-padding:0;clip-rule:nonzero;display:inline;overflow:visible;visibility:visible;opacity:0.2;isolation:auto;mix-blend-mode:normal;color-interpolation:sRGB;color-interpolation-filters:linearRGB;solid-color:#000000;solid-opacity:1;vector-effect:none;fill:#000000;fill-opacity:1;fill-rule:nonzero;stroke:none;stroke-width:1.99994516;stroke-linecap:round;stroke-linejoin:round;stroke-miterlimit:4;stroke-dasharray:none;stroke-dashoffset:0;stroke-opacity:1;paint-order:normal;color-rendering:auto;image-rendering:auto;shape-rendering:auto;text-rendering:auto;enable-background:accumulate;filter:url(#filter822)"
     d="M 11.544922,8.5008231 A 1.0001,1.0000451 0 0 0 10.65625,10.030036 l 4.996094,7.999561 a 1.0001,1.0000451 0 0 0 1.695312,0.002 l 5.003906,-7.999608 A 1.0001,1.0000451 0 0 0 21.533203,8.5008231 1.0001,1.0000451 0 0 0 20.826172,8.7644806 C 19.90021,9.6166581 18.178831,10.499614 16.5,10.500713 14.824731,10.5018 13.109377,9.613869 12.179688,8.7625276 A 1.0001,1.0000451 0 0 0 11.544922,8.5008231 Z M 6.5,20.500165 a 1.0001,1.0000451 0 0 0 -1,0.999945 v 0.999945 A 1.0001,1.0000451 0 0 0 6.5,23.5 h 20 a 1.0001,1.0000451 0 0 0 1,-0.999945 V 21.50011 a 1.0001,1.0000451 0 0 0 -1,-0.999945 z" />
  <path
     id="path832"
     style="color:#000000;font-style:normal;font-variant:normal;font-weight:normal;font-stretch:normal;font-size:medium;line-height:normal;font-family:sans-serif;font-variant-ligatures:normal;font-variant-position:normal;font-variant-caps:normal;font-variant-numeric:normal;font-variant-alternates:normal;font-feature-settings:normal;text-indent:0;text-align:start;text-decoration:none;text-decoration-line:none;text-decoration-style:solid;text-decoration-color:#000000;letter-spacing:normal;word-spacing:normal;text-transform:none;writing-mode:lr-tb;direction:ltr;text-orientation:mixed;dominant-baseline:auto;baseline-shift:baseline;text-anchor:start;white-space:normal;shape-padding:0;clip-rule:nonzero;display:inline;overflow:visible;visibility:visible;opacity:1;isolation:auto;mix-blend-mode:normal;color-interpolation:sRGB;color-interpolation-filters:linearRGB;solid-color:#000000;solid-opacity:1;vector-effect:none;fill:#1E1E2E;fill-opacity:1;fill-rule:nonzero;stroke:none;stroke-width:1.99994516;stroke-linecap:round;stroke-linejoin:round;stroke-miterlimit:4;stroke-dasharray:none;stroke-dashoffset:0;stroke-opacity:1;paint-order:normal;color-rendering:auto;image-rendering:auto;shape-rendering:auto;text-rendering:auto;enable-background:accumulate"
     d="m 11.044922,8.0008231 a 1.0001,1.0000451 0 0 0 -0.888672,1.529213 l 4.996094,7.9995609 a 1.0001,1.0000451 0 0 0 1.695312,0.002 L 21.851562,9.5319891 A 1.0001,1.0000451 0 0 0 21.033203,8.0008231 1.0001,1.0000451 0 0 0 20.326172,8.2644806 C 19.40021,9.1166581 17.678831,9.9996142 16,10.000713 14.324731,10.0018 12.609377,9.113869 11.679688,8.2625276 A 1.0001,1.0000451 0 0 0 11.044922,8.0008231 Z M 6,20.000165 A 1.0001,1.0000451 0 0 0 5,21.00011 v 0.999945 A 1.0001,1.0000451 0 0 0 6,23 h 20 a 1.0001,1.0000451 0 0 0 1,-0.999945 V 21.00011 a 1.0001,1.0000451 0 0 0 -1,-0.999945 z" />
  <path
     id="path830-3"
     style="opacity:1;fill:#FAB387;fill-opacity:1;stroke:none;stroke-width:0;stroke-linecap:round;stroke-linejoin:round;stroke-miterlimit:4;stroke-dasharray:none;stroke-dashoffset:0;stroke-opacity:1;paint-order:normal"
     d="M 11.003906,9 16,17 21.003906,9 c -1.108602,1.02032 -3,1.998688 -5.003906,2 -2.003906,0.0013 -3.888088,-0.985314 -4.996094,-2 z M 6,21 v 1 h 20 v -1 z" />
</svg>

<svg xmlns="http://www.w3.org/2000/svg" width="32" height="32">
    <defs>
        <filter id="a" width="1.121" height="1.178" x="-.061" y="-.089" style="color-interpolation-filters:sRGB">
            <feGaussianBlur stdDeviation=".555"/>
        </filter>
    </defs>
    <path d="M11.545 8.5a1 1 0 0 0-.889 1.53l4.996 8a1 1 0 0 0 1.696.002l5.004-8a1 1 0 0 0-.819-1.531 1 1 0 0 0-.707.263c-.926.853-2.647 1.736-4.326 1.737-1.675 0-3.39-.887-4.32-1.738a1 1 0 0 0-.635-.262M6.5 20.5a1 1 0 0 0-1 1v1a1 1 0 0 0 1 1h20a1 1 0 0 0 1-1v-1a1 1 0 0 0-1-1z" style="color:#000;font-style:normal;font-variant:normal;font-weight:400;font-stretch:normal;font-size:medium;line-height:normal;font-family:sans-serif;font-variant-ligatures:normal;font-variant-position:normal;font-variant-caps:normal;font-variant-numeric:normal;font-variant-alternates:normal;font-feature-settings:normal;text-indent:0;text-align:start;text-decoration:none;text-decoration-line:none;text-decoration-style:solid;text-decoration-color:#000;letter-spacing:normal;word-spacing:normal;text-transform:none;writing-mode:lr-tb;direction:ltr;text-orientation:mixed;dominant-baseline:auto;baseline-shift:baseline;text-anchor:start;white-space:normal;shape-padding:0;clip-rule:nonzero;display:inline;overflow:visible;visibility:visible;opacity:.2;isolation:auto;mix-blend-mode:normal;color-interpolation:sRGB;color-interpolation-filters:linearRGB;solid-color:#000;solid-opacity:1;vector-effect:none;fill:#000;fill-opacity:1;fill-rule:nonzero;stroke:none;stroke-width:1.99994516;stroke-linecap:round;stroke-linejoin:round;stroke-miterlimit:4;stroke-dasharray:none;stroke-dashoffset:0;stroke-opacity:1;paint-order:normal;color-rendering:auto;image-rendering:auto;shape-rendering:auto;text-rendering:auto;enable-background:accumulate;filter:url(#a)"/>
    <path d="M11.045 8a1 1 0 0 0-.889 1.53l4.996 8a1 1 0 0 0 1.696.002l5.004-8a1 1 0 0 0-.819-1.531 1 1 0 0 0-.707.263C19.4 9.117 17.68 10 16 10.001c-1.675 0-3.39-.887-4.32-1.738A1 1 0 0 0 11.045 8M6 20a1 1 0 0 0-1 1v1a1 1 0 0 0 1 1h20a1 1 0 0 0 1-1v-1a1 1 0 0 0-1-1z" style="color:#000;font-style:normal;font-variant:normal;font-weight:400;font-stretch:normal;font-size:medium;line-height:normal;font-family:sans-serif;font-variant-ligatures:normal;font-variant-position:normal;font-variant-caps:normal;font-variant-numeric:normal;font-variant-alternates:normal;font-feature-settings:normal;text-indent:0;text-align:start;text-decoration:none;text-decoration-line:none;text-decoration-style:solid;text-decoration-color:#000;letter-spacing:normal;word-spacing:normal;text-transform:none;writing-mode:lr-tb;direction:ltr;text-orientation:mixed;dominant-baseline:auto;baseline-shift:baseline;text-anchor:start;white-space:normal;shape-padding:0;clip-rule:nonzero;display:inline;overflow:visible;visibility:visible;opacity:1;isolation:auto;mix-blend-mode:normal;color-interpolation:sRGB;color-interpolation-filters:linearRGB;solid-color:#000;solid-opacity:1;vector-effect:none;fill:#1e1e2e;fill-opacity:1;fill-rule:nonzero;stroke:none;stroke-width:1.99994516;stroke-linecap:round;stroke-linejoin:round;stroke-miterlimit:4;stroke-dasharray:none;stroke-dashoffset:0;stroke-opacity:1;paint-order:normal;color-rendering:auto;image-rendering:auto;shape-rendering:auto;text-rendering:auto;enable-background:accumulate"/>
    <path d="M11.004 9 16 17l5.004-8c-1.109 1.02-3 1.999-5.004 2s-3.888-.985-4.996-2M6 21v1h20v-1z" style="opacity:1;fill:#fab387;fill-opacity:1;stroke:none;stroke-width:0;stroke-linecap:round;stroke-linejoin:round;stroke-miterlimit:4;stroke-dasharray:none;stroke-dashoffset:0;stroke-opacity:1;paint-order:normal"/>
</svg>
